SVG/ico__filter.svg

<svg xmlns="http://www.w3.org/2000/svg" viewBox="0 0 240 240">
  <path d="M220,160h-31.71c-4.12-11.65-15.23-20-28.29-20s-24.17,8.35-28.29,20H20v20h111.71c4.12,11.65,15.23,20,28.29,20s24.17-8.35,28.29-20h31.71v-20ZM160,180c-5.52,0-10-4.48-10-10s4.48-10,10-10,10,4.48,10,10-4.48,10-10,10Z"/>
  <path d="M20,80h31.71c4.12,11.65,15.23,20,28.29,20s24.17-8.35,28.29-20h111.71v-20h-111.71c-4.12-11.65-15.23-20-28.29-20s-24.17,8.35-28.29,20h-31.71v20ZM80,60c5.52,0,10,4.48,10,10s-4.48,10-10,10-10-4.48-10-10,4.48-10,10-10Z"/>
</svg>

<svg width="240" height="240" viewBox="0 0 240 240" fill="none" xmlns="http://www.w3.org/2000/svg">
<path d="M220 160H188.29C184.17 148.35 173.06 140 160 140C146.94 140 135.83 148.35 131.71 160H20V180H131.71C135.83 191.65 146.94 200 160 200C173.06 200 184.17 191.65 188.29 180H220V160ZM160 180C154.48 180 150 175.52 150 170C150 164.48 154.48 160 160 160C165.52 160 170 164.48 170 170C170 175.52 165.52 180 160 180Z" fill="black"/>
<path d="M20 80H51.71C55.83 91.65 66.94 100 80 100C93.06 100 104.17 91.65 108.29 80H220V60H108.29C104.17 48.35 93.06 40 80 40C66.94 40 55.83 48.35 51.71 60H20V80ZM80 60C85.52 60 90 64.48 90 70C90 75.52 85.52 80 80 80C74.48 80 70 75.52 70 70C70 64.48 74.48 60 80 60Z" fill="black"/>
</svg>
